Newaita-dark/apps/64/com.github.bcedu.museic.svg

<svg height="64pt" viewBox="0 0 64 64" width="64pt" xmlns="http://www.w3.org/2000/svg" xmlns:xlink="http://www.w3.org/1999/xlink"><linearGradient id="a"><stop offset="0" stop-opacity=".313725"/><stop offset=".222222" stop-opacity=".27451"/><stop offset="1" stop-opacity="0"/></linearGradient><radialGradient id="b" cx="450.90894" cy="189.57936" gradientTransform="matrix(.00000031 -.218771 -.253149 -.00000028 66.44819 155.639845)" gradientUnits="userSpaceOnUse" r="21.166656" xlink:href="#a"/><radialGradient id="c" cx="450.90894" cy="189.57936" gradientTransform="matrix(-.00000031 .218771 .253149 .00000028 -30.726028 -43.504145)" gradientUnits="userSpaceOnUse" r="21.166656" xlink:href="#a"/><radialGradient id="d" cx="450.90894" cy="189.57936" gradientTransform="matrix(-.00000031 -.218771 .253149 -.00000028 -30.726028 155.639845)" gradientUnits="userSpaceOnUse" r="21.166656" xlink:href="#a"/><radialGradient id="e" cx="450.90894" cy="189.57936" gradientTransform="matrix(.00000031 .218771 -.253149 .00000028 66.448187 -43.504147)" gradientUnits="userSpaceOnUse" r="21.166656" xlink:href="#a"/><linearGradient id="f" gradientTransform="matrix(.00687089 0 0 .175017 16.106782 15.20143)" gradientUnits="userSpaceOnUse" x1="255.32306" x2="255.32304" y1="233.5" y2="254.66666"><stop offset="0" stop-opacity=".27451"/><stop offset="1" stop-opacity="0"/></linearGradient><linearGradient id="g" gradientUnits="userSpaceOnUse" x1="31.75307757517" x2="31.75307757517" y1="56.06792112818" y2="5.79225568785"><stop offset="0" stop-color="#424242"/><stop offset="1" stop-color="#616161"/></linearGradient><path d="m19.050781 56.066406h4.765625v-3.703125h-4.765625zm0 0" fill="url(#b)"/><path d="m16.671875 56.066406h-4.765625v3.707032h4.765625zm0 0" fill="url(#c)"/><path d="m16.671875 56.066406h-4.765625v-3.703125h4.765625zm0 0" fill="url(#d)"/><path d="m19.050781 56.066406h4.765625v3.707032h-4.765625zm0 0" fill="url(#e)"/><path d="m16.671875 55.140625h2.378906v4.632813h-2.378906zm0 0" fill="url(#f)"/><path d="m23.816406 5.792969c-1.734375 0-3.132812 1.625-3.132812 3.644531v31.234375c-.976563-.289063-2.03125-.445313-3.128906-.445313-5.203126 0-9.394532 3.492188-9.394532 7.828126 0 4.335937 4.191406 7.824218 9.394532 7.824218 5.203124 0 9.390624-3.488281 9.390624-7.824218v-34.4375c0-.867188.699219-1.5625 1.566407-1.5625h15.652343c.867188 0 1.5625.695312 1.5625 1.5625v17.660156c-.976562-.285156-2.03125-.441406-3.128906-.441406-5.203125 0-9.390625 3.492187-9.390625 7.828124 0 4.335938 4.1875 7.824219 9.390625 7.824219s9.390625-3.488281 9.390625-7.824219v-29.226562c0-2.019531-1.394531-3.644531-3.128906-3.644531zm0 0" fill="url(#g)"/><path d="m23.816406 5.792969c-1.734375 0-3.132812 1.625-3.132812 3.644531v.660156c0-2.019531 1.398437-3.644531 3.132812-3.644531h25.042969c1.734375 0 3.128906 1.625 3.128906 3.644531v-.660156c0-2.019531-1.394531-3.644531-3.128906-3.644531zm18.78125 25.042969c-5.203125 0-9.390625 3.492187-9.390625 7.828124 0 .109376.003907.21875.007813.328126.207031-4.179688 4.3125-7.496094 9.382812-7.496094 1.097656 0 2.152344.15625 3.128906.445312v-.664062c-.976562-.285156-2.03125-.441406-3.128906-.441406zm-25.042968 9.390624c-5.203126 0-9.394532 3.492188-9.394532 7.828126 0 .109374.003906.21875.011719.328124.207031-4.179687 4.3125-7.492187 9.382813-7.492187 1.097656 0 2.152343.15625 3.128906.441406v-.660156c-.976563-.289063-2.03125-.445313-3.128906-.445313zm0 0" fill="#fff" fill-opacity=".313725"/><path d="m28.511719 11.042969c-.867188 0-1.566407.699219-1.566407 1.566406v1.007813c0-.867188.699219-1.5625 1.566407-1.5625h15.652343c.867188 0 1.5625.695312 1.5625 1.5625v-1.007813c0-.867187-.695312-1.566406-1.5625-1.566406zm23.476562 26.609375c0 4.335937-4.1875 7.824218-9.390625 7.824218-5 0-9.0625-3.21875-9.371094-7.320312-.011718.167969-.019531.335938-.019531.507812 0 4.335938 4.1875 7.824219 9.390625 7.824219s9.390625-3.488281 9.390625-7.824219zm-25.042969 9.390625c0 4.335937-4.1875 7.828125-9.390624 7.828125-5 0-9.0625-3.222656-9.371094-7.320313-.015625.164063-.023438.332031-.023438.503907 0 4.335937 4.191406 7.824218 9.394532 7.824218 5.203124 0 9.390624-3.488281 9.390624-7.824218zm0 0" fill-opacity=".235294"/><path d="m190.513057-168.660675c-13.873675 0-25.060107 12.998758-25.060107 29.153466v249.85114c-7.811754-2.312279-16.248448-3.56216-25.02886-3.56216-41.621025 0-75.149073 27.934833-75.149073 62.619021 0 34.684187 33.528048 62.587773 75.149073 62.587773 41.621026 0 75.117827-27.903586 75.117827-62.587773v-275.473694c0-6.936838 5.593216-12.498806 12.530053-12.498806h125.206794c6.936837 0 12.498806 5.561968 12.498806 12.498806v141.26776c-7.811754-2.281033-16.248448-3.530913-25.02886-3.530913-41.621025 0-75.117826 27.934832-75.117826 62.61902s33.496801 62.587773 75.117826 62.587773c41.621026 0 75.117827-27.903585 75.117827-62.587773v-233.790174c0-16.154708-11.155185-29.153466-25.02886-29.153466zm0 0" fill="none" stroke="#212121" stroke-linecap="round" stroke-width="3" transform="matrix(.125012 0 0 .125012 0 26.877566)"/></svg>

<?xml version="1.0" encoding="UTF-8"?>
<svg xmlns="http://www.w3.org/2000/svg" xmlns:xlink="http://www.w3.org/1999/xlink" width="64pt" height="64pt" viewBox="0 0 64 64" version="1.1">
<defs>
<radialGradient id="radial0" gradientUnits="userSpaceOnUse" cx="450.90894" cy="189.57936" fx="450.90894" fy="189.57936" r="21.166656" gradientTransform="matrix(0.000000313507,-0.218771,-0.253149,-0.000000284308,66.44819,155.639845)">
<stop offset="0" style="stop-color:rgb(0%,0%,0%);stop-opacity:0.313725;"/>
<stop offset="0.222222" style="stop-color:rgb(0%,0%,0%);stop-opacity:0.27451;"/>
<stop offset="1" style="stop-color:rgb(0%,0%,0%);stop-opacity:0;"/>
</radialGradient>
<radialGradient id="radial1" gradientUnits="userSpaceOnUse" cx="450.90894" cy="189.57936" fx="450.90894" fy="189.57936" r="21.166656" gradientTransform="matrix(-0.000000313507,0.218771,0.253149,0.000000284308,-30.726028,-43.504145)">
<stop offset="0" style="stop-color:rgb(0%,0%,0%);stop-opacity:0.313725;"/>
<stop offset="0.222222" style="stop-color:rgb(0%,0%,0%);stop-opacity:0.27451;"/>
<stop offset="1" style="stop-color:rgb(0%,0%,0%);stop-opacity:0;"/>
</radialGradient>
<radialGradient id="radial2" gradientUnits="userSpaceOnUse" cx="450.90894" cy="189.57936" fx="450.90894" fy="189.57936" r="21.166656" gradientTransform="matrix(-0.000000313507,-0.218771,0.253149,-0.000000284308,-30.726028,155.639845)">
<stop offset="0" style="stop-color:rgb(0%,0%,0%);stop-opacity:0.313725;"/>
<stop offset="0.222222" style="stop-color:rgb(0%,0%,0%);stop-opacity:0.27451;"/>
<stop offset="1" style="stop-color:rgb(0%,0%,0%);stop-opacity:0;"/>
</radialGradient>
<radialGradient id="radial3" gradientUnits="userSpaceOnUse" cx="450.90894" cy="189.57936" fx="450.90894" fy="189.57936" r="21.166656" gradientTransform="matrix(0.000000313507,0.218771,-0.253149,0.000000284308,66.448187,-43.504147)">
<stop offset="0" style="stop-color:rgb(0%,0%,0%);stop-opacity:0.313725;"/>
<stop offset="0.222222" style="stop-color:rgb(0%,0%,0%);stop-opacity:0.27451;"/>
<stop offset="1" style="stop-color:rgb(0%,0%,0%);stop-opacity:0;"/>
</radialGradient>
<linearGradient id="linear0" gradientUnits="userSpaceOnUse" x1="255.32306" y1="233.5" x2="255.32304" y2="254.66666" gradientTransform="matrix(0.00687089,0,0,0.175017,16.106782,15.20143)">
<stop offset="0" style="stop-color:rgb(0%,0%,0%);stop-opacity:0.27451;"/>
<stop offset="1" style="stop-color:rgb(0%,0%,0%);stop-opacity:0;"/>
</linearGradient>
<linearGradient id="linear1" gradientUnits="userSpaceOnUse" x1="981.43005" y1="1457.5077" x2="981.43005" y2="815.11719" gradientTransform="matrix(0.0782634,0,0,0.0782634,-45.056975,-58.001587)">
<stop offset="0" style="stop-color:rgb(25.882353%,25.882353%,25.882353%);stop-opacity:1;"/>
<stop offset="1" style="stop-color:rgb(38.039216%,38.039216%,38.039216%);stop-opacity:1;"/>
</linearGradient>
</defs>
<g id="surface1">
<path style=" stroke:none;fill-rule:nonzero;fill:url(#radial0);" d="M 19.050781 56.066406 L 23.816406 56.066406 L 23.816406 52.363281 L 19.050781 52.363281 Z M 19.050781 56.066406 "/>
<path style=" stroke:none;fill-rule:nonzero;fill:url(#radial1);" d="M 16.671875 56.066406 L 11.90625 56.066406 L 11.90625 59.773438 L 16.671875 59.773438 Z M 16.671875 56.066406 "/>
<path style=" stroke:none;fill-rule:nonzero;fill:url(#radial2);" d="M 16.671875 56.066406 L 11.90625 56.066406 L 11.90625 52.363281 L 16.671875 52.363281 Z M 16.671875 56.066406 "/>
<path style=" stroke:none;fill-rule:nonzero;fill:url(#radial3);" d="M 19.050781 56.066406 L 23.816406 56.066406 L 23.816406 59.773438 L 19.050781 59.773438 Z M 19.050781 56.066406 "/>
<path style=" stroke:none;fill-rule:nonzero;fill:url(#linear0);" d="M 16.671875 55.140625 L 19.050781 55.140625 L 19.050781 59.773438 L 16.671875 59.773438 Z M 16.671875 55.140625 "/>
<path style=" stroke:none;fill-rule:nonzero;fill:url(#linear1);" d="M 23.816406 5.792969 C 22.082031 5.792969 20.683594 7.417969 20.683594 9.4375 L 20.683594 40.671875 C 19.707031 40.382812 18.652344 40.226562 17.554688 40.226562 C 12.351562 40.226562 8.160156 43.71875 8.160156 48.054688 C 8.160156 52.390625 12.351562 55.878906 17.554688 55.878906 C 22.757812 55.878906 26.945312 52.390625 26.945312 48.054688 L 26.945312 13.617188 C 26.945312 12.75 27.644531 12.054688 28.511719 12.054688 L 44.164062 12.054688 C 45.03125 12.054688 45.726562 12.75 45.726562 13.617188 L 45.726562 31.277344 C 44.75 30.992188 43.695312 30.835938 42.597656 30.835938 C 37.394531 30.835938 33.207031 34.328125 33.207031 38.664062 C 33.207031 43 37.394531 46.488281 42.597656 46.488281 C 47.800781 46.488281 51.988281 43 51.988281 38.664062 L 51.988281 9.4375 C 51.988281 7.417969 50.59375 5.792969 48.859375 5.792969 Z M 23.816406 5.792969 "/>
<path style=" stroke:none;fill-rule:nonzero;fill:rgb(100%,100%,100%);fill-opacity:0.313725;" d="M 23.816406 5.792969 C 22.082031 5.792969 20.683594 7.417969 20.683594 9.4375 L 20.683594 10.097656 C 20.683594 8.078125 22.082031 6.453125 23.816406 6.453125 L 48.859375 6.453125 C 50.59375 6.453125 51.988281 8.078125 51.988281 10.097656 L 51.988281 9.4375 C 51.988281 7.417969 50.59375 5.792969 48.859375 5.792969 Z M 42.597656 30.835938 C 37.394531 30.835938 33.207031 34.328125 33.207031 38.664062 C 33.207031 38.773438 33.210938 38.882812 33.214844 38.992188 C 33.421875 34.8125 37.527344 31.496094 42.597656 31.496094 C 43.695312 31.496094 44.75 31.652344 45.726562 31.941406 L 45.726562 31.277344 C 44.75 30.992188 43.695312 30.835938 42.597656 30.835938 Z M 17.554688 40.226562 C 12.351562 40.226562 8.160156 43.71875 8.160156 48.054688 C 8.160156 48.164062 8.164062 48.273438 8.171875 48.382812 C 8.378906 44.203125 12.484375 40.890625 17.554688 40.890625 C 18.652344 40.890625 19.707031 41.046875 20.683594 41.332031 L 20.683594 40.671875 C 19.707031 40.382812 18.652344 40.226562 17.554688 40.226562 Z M 17.554688 40.226562 "/>
<path style=" stroke:none;fill-rule:nonzero;fill:rgb(0%,0%,0%);fill-opacity:0.235294;" d="M 28.511719 11.042969 C 27.644531 11.042969 26.945312 11.742188 26.945312 12.609375 L 26.945312 13.617188 C 26.945312 12.75 27.644531 12.054688 28.511719 12.054688 L 44.164062 12.054688 C 45.03125 12.054688 45.726562 12.75 45.726562 13.617188 L 45.726562 12.609375 C 45.726562 11.742188 45.03125 11.042969 44.164062 11.042969 Z M 51.988281 37.652344 C 51.988281 41.988281 47.800781 45.476562 42.597656 45.476562 C 37.597656 45.476562 33.535156 42.257812 33.226562 38.15625 C 33.214844 38.324219 33.207031 38.492188 33.207031 38.664062 C 33.207031 43 37.394531 46.488281 42.597656 46.488281 C 47.800781 46.488281 51.988281 43 51.988281 38.664062 Z M 26.945312 47.042969 C 26.945312 51.378906 22.757812 54.871094 17.554688 54.871094 C 12.554688 54.871094 8.492188 51.648438 8.183594 47.550781 C 8.167969 47.714844 8.160156 47.882812 8.160156 48.054688 C 8.160156 52.390625 12.351562 55.878906 17.554688 55.878906 C 22.757812 55.878906 26.945312 52.390625 26.945312 48.054688 Z M 26.945312 47.042969 "/>
<path style="fill:none;stroke-width:3;stroke-linecap:round;stroke-linejoin:miter;stroke:rgb(12.941176%,12.941176%,12.941176%);stroke-opacity:1;stroke-miterlimit:4;" d="M 190.513057 -168.660675 C 176.639382 -168.660675 165.45295 -155.661917 165.45295 -139.507209 L 165.45295 110.343931 C 157.641196 108.031652 149.204502 106.781771 140.42409 106.781771 C 98.803065 106.781771 65.275017 134.716604 65.275017 169.400792 C 65.275017 204.084979 98.803065 231.988565 140.42409 231.988565 C 182.045116 231.988565 215.541917 204.084979 215.541917 169.400792 L 215.541917 -106.072902 C 215.541917 -113.00974 221.135133 -118.571708 228.07197 -118.571708 L 353.278764 -118.571708 C 360.215601 -118.571708 365.77757 -113.00974 365.77757 -106.072902 L 365.77757 35.194858 C 357.965816 32.913825 349.529122 31.663945 340.74871 31.663945 C 299.127685 31.663945 265.630884 59.598777 265.630884 94.282965 C 265.630884 128.967153 299.127685 156.870738 340.74871 156.870738 C 382.369736 156.870738 415.866537 128.967153 415.866537 94.282965 L 415.866537 -139.507209 C 415.866537 -155.661917 404.711352 -168.660675 390.837677 -168.660675 Z M 190.513057 -168.660675 " transform="matrix(0.125012,0,0,0.125012,0,26.877566)"/>
</g>
</svg>
